X:1
T:Rendons un éternel hommage
T:Rendons un éternel hommage
T:La grande Prêtresse Hyppolite et Aricie 
T:JF Rameau
C:JF Rameau
%%score 1 [ 2 3 ] { ( 4 6 7 ) | 5 }
L:1/8
M:3/4
K:G
V:1 treble nm="Voix" snm="Vx."
V:2 treble nm="S A"
V:3 treble nm="T B"
V:4 treble nm="Piano" snm="Pia."
V:6 treble 
V:7 treble 
V:5 treble 
V:1
 G2 | d6 | B2 B2 c2 | A4 d2 | G4- G z | E2 EF GE | A4 F2 | d3 B GA | D4 z2 | z6 | z6 | z6 | z6 | %13
 z6 | z6 | z6 | z6 | A3 A Bc | B4 AG | A4 d2 | e3 d ce | d4 cB | c2 dc B/AB/ | B2 G2 d2 | e3 e fg | %25
 g2 d2 B2 | GA/B/ c3 B/A/ | B2 A4 | G6 |] z6 | z6 | z6 | z6 | g3 g gg | g4 gf | g4 d2 | e3 e fg | %37
 f2 d2 B2 | G2 c3 B/A/ | B2 A4 | G4 d2 | e3 e fg | f2 d2 B2 | GA/B/ c3 B/A/ | B2 A4 | G6 |] %46
V:2
 z2 | z6 | z6 | z6 | z6 | z6 | z6 | z6 | z4 B2 | A6 | d2 B2 G2 | c4 B/AB/ | B4 G2 | g2 gf ed | %14
 ^c4 f2 | d3 d d^c | d6 | z6 | z6 | z6 | z6 | z6 | z6 | z6 | z6 | z6 | z6 | z6 | z6 |] A3 A Bc | %30
 B4 AG | A4 d2 | e3 d ce | d4 cB | c2 c2 B/AB/ | B2 G2 d2 | e3 e fg | f2 d2 B2 | G2 c3 B/A/ | %39
 B2 A4 | G4 d2 | d3 c cc | c2 c2 d2 | B2 A3 F/G/ | G4 F2 | G6 |] %46
V:3
 z2 | z6 | z6 | z6 | z6 | z6 | z6 | z6 | z4 G2 | F6 | G2 G2 E2 | A4 F2 | G4 D2 | B2 BA GF | E4 A2 | %15
 F3 E EF | D4 z2 | z6 | z6 | z6 | z6 | z6 | z6 | z6 | z6 | z6 | z6 | z6 | z6 |] F3 F GA | G4 DG | %31
 F4 G2 | G3 G GA | B4 GD | E2 E2 C2 | D2 D z d2 | d3 c cc | A2 A2 D2 | E4 FG | G4 F2 | G4 B2 | %41
 B3 A AA | A2 A2 D2 | E4 FG | D6 | G6 |] %46
V:4
 [gb]2 | [fa]6 | [gd']2 [gd']2 [eg]2 | [ec']4 b/ab/ | b4 g z | b2 b>a g>f | x4 a2 | f3 f g>e | %8
 f4 B2 | A6 | d2 B2 G2 | c4 B/AB/ | B4 G2 | [Bg]3 [Af] [Ge][Fd] | [E^c]4 [Af]2 | %15
 [Fd]3 [Ed] [Ed][F^c] | [Dd]6 | [Af]3 [Af] [Bg]>[ca] | [Bd]4 d>g | [Af]4 [dg]2 | g6 | g6 | g4 f2 | %23
 g2 d2 g2 | g3 g c'>b | a2 b2 g2 | e2 f3 g | g4 f2 | g6 |] A4 Bc | B4 AG | A4 d2 | e3 d ce | %33
 g4 gg | g4 gf | g4 d2 | e3 e fg | f2 d2 B2 | G2 c3 B/A/ | B2 A4 | G4 [Bd]2 | %41
 [Bde]3 [Ace] [Acf][Acg] | f2 d2 B2 | GA/B/ c3 B/A/ | B2 A4 | G6 |] %46
V:5
 G2 | d6 | B4 c2 | A4 d2 | G4 G z | E2 EF GE | A4 F2 | B3 B GA | D4 G,2 | D6 | B,4 C2 | A,4 D2 | %12
 G,6 |[K:bass] E,2 E,>F, G,>E, | A,4 F,2 | B,3 B, G,>A, | D,6 | D6 |[K:treble] G4 F>G | D4 B,2 | %20
 C3 G C>G | B,3 G B,>G | A,3 G A,>D | G,4 B2 | c3 B A>G | d2 g2 G2 | c>B A3 G | d2 D4 | G,6 |] %29
 D4 D2 | D4 D2 | D4 B,2 | C3 G C>G | B,3 G B,>G | A,3 G A,>D | G,4 B,2 | C3 C C>A, | D4 D2 | %38
 E4 FG | D6 | G4 B,2 | C3 C C>A, | D4 D2 | E4 FG | D6 | G,6 |] %46
V:6
 x2 | x6 | x6 | e4 f2 | g4 d z | g2 g>f e>d | [^ce]4 f2 | d3 d d>^c | d4 G2 | F6 | x6 | x6 | x6 | %13
 x6 | x6 | x6 | x6 | x6 | x6 | x6 | e3 d cd | d4 cB | c4 f2 | B4 d2 | e3 e f>g | f2 d2 B2 | x6 | %27
 B2 A4 | G6 |] x6 | x6 | x6 | x6 | x6 | x6 | x6 | x6 | x6 | x6 | x6 | x6 | x6 | x6 | x6 | x6 | %45
 x6 |] %46
V:7
 x2 | x6 | x6 | x6 | x6 | x6 | x6 | x6 | x6 | x6 | x6 | x6 | x6 | x6 | x6 | x6 | x6 | x6 | x6 | %19
 x6 | x6 | x6 | x6 | x6 | x6 | x6 | x6 | x6 | x6 |] F4 GA | G4 z2 | F4 G2 | x6 | x6 | x6 | x6 | %36
 d3 c c2 | A2 F2 G2 | x6 | G4 F2 | x6 | x6 | [Ac]4 z2 | x6 | G4 F2 | x6 |] %46

